rendering_styles/style-icons/poi-icons-svg/mx_subway_station.svg

<svg width="48" height="48" version="1.1" viewBox="0 0 48 48" xmlns="http://www.w3.org/2000/svg">
 <path d="m14.828 4c-1.811 0-3.5478 0.71942-4.8284 2-1.2806 1.2806-2 3.0174-2 4.8284v25.172c0 2.2091 1.7909 4 4 4h24c2.2091 0 4-1.7909 4-4v-25.172c0-1.811-0.7194-3.5478-2-4.8284s-3.0174-2-4.8284-2h-18.343zm21.172 12h-24v12h24v-12zm-22 20c1.1046 0 2-0.8954 2-2s-0.8954-2-2-2-2 0.8954-2 2 0.8954 2 2 2zm22-2c0 1.1046-0.8954 2-2 2s-2-0.8954-2-2 0.8954-2 2-2 2 0.8954 2 2z" clip-rule="evenodd" fill="#fff" fill-rule="evenodd"/>
 <path d="m14 36h4l-2.6667 8h17.333l-2.6667-8h4l4 12h-28l4-12z" fill="#fff" opacity=".5"/>
</svg>

<svg width="48" height="48" viewBox="0 0 48 48" fill="none" xmlns="http://www.w3.org/2000/svg">
<path fill-rule="evenodd" clip-rule="evenodd" d="M14.8284 4C13.0174 4 11.2806 4.71942 10 6C8.71942 7.28058 8 9.01742 8 10.8284V36C8 38.2091 9.79086 40 12 40H36C38.2091 40 40 38.2091 40 36V10.8284C40 9.01742 39.2806 7.28058 38 6C36.7194 4.71942 34.9826 4 33.1716 4H14.8284ZM36 16H12V28H36V16ZM14 36C15.1046 36 16 35.1046 16 34C16 32.8954 15.1046 32 14 32C12.8954 32 12 32.8954 12 34C12 35.1046 12.8954 36 14 36ZM36 34C36 35.1046 35.1046 36 34 36C32.8954 36 32 35.1046 32 34C32 32.8954 32.8954 32 34 32C35.1046 32 36 32.8954 36 34Z" fill="#0092DA"/>
<path opacity="0.5" d="M14 36H18L15.3333 44H32.6667L30 36H34L38 48H10L14 36Z" fill="#0092DA"/>
</svg>
